!! 00000] TT[WS
!!!OTL: Junmien yijia
!!!ARE: Asia, China, Shanxi Zuoquan
!! Ethnic Group: Han
!! WII, 224 (2)
!!!SCT: J0733
!!!YEM: Copyright 1995, estate of Helmut Schaffrath.
**kern
*ICvox
*Ivox
*M2/4
*k[f#]
*G:
{8g
8g
8f#
8e
=1
8g
8d
4d
=2
8g
8f#
8e
8g
=3
2a}
=4
{8dd
8ee
8cc
8b
=5
8dd
4a
8b
=6
8dd
8g
8f#
8e
=7
2dd}
==
!!!AGN: Xiaodiao. XÅshi, Xinminge
!!!ONB: ESAC (Essen Associative Code) Database: CHINA
!!!AMT: simple duple
!!!AIN: vox
!!!EED: Helmut Schaffrath
!!!EEV: 1.0
*-
